src/collection/traits/Body/Default.svg

<?xml version="1.0" encoding="utf-8"?>
<!-- Generator: Adobe Illustrator 27.7.0, SVG Export Plug-In . SVG Version: 6.00 Build 0)  -->
<svg version="1.1" id="Layer_1" xmlns="http://www.w3.org/2000/svg" xmlns:xlink="http://www.w3.org/1999/xlink" x="0px" y="0px"
	 viewBox="0 0 545.1 545.1" style="enable-background:new 0 0 545.1 545.1;" xml:space="preserve">
<style type="text/css">
	.st0{clip-path:url(#SVGID_00000153666564017456261180000005584704592543582651_);}
	.st1{fill:#FDC68E;}
	.st2{fill:#D18154;}
	.st3{fill:none;stroke:#000000;stroke-width:5;stroke-linecap:round;stroke-linejoin:round;}
</style>
<g>
	<g id="Layer_2_00000126310495511067165700000005497301696060895623_">
		<g id="Layer_1-2">
			<g>
				<g>
					<defs>
						<rect id="SVGID_1_" y="0" width="545.1" height="545.1"/>
					</defs>
					<clipPath id="SVGID_00000128448593313344700990000000496830943924397731_">
						<use xlink:href="#SVGID_1_"  style="overflow:visible;"/>
					</clipPath>
					<g style="clip-path:url(#SVGID_00000128448593313344700990000000496830943924397731_);">
						<g>
							<path class="st1" d="M527.3,483c-1.7-9.6-20.2-88.1-48.4-120.7c-35.8-41.3-106.1-35.9-136.6-6.5
								c-26.5,25.5-41.3,82.6-44.6,99.1c-0.8,3.8-2.3,7.4-4.6,10.5c-16.8,21.8-41.6-24.7-41.6-24.7s-2.5-4.9-5.9-10.1l-18,5.4
								c1.1,30.7,11.1,55.9,25.9,72.8c15.5,17.8,36.2,26.3,57,22c4-0.8,7.5-2,10.5-3.5c-6.4,63-12.2,116-6.3,123.9
								c7.2,9.6,140,10.7,158.7-31.5l1,8.9c0,0,32.9,49.2,50.7-10.3C540.3,567.3,530.4,500.9,527.3,483L527.3,483z"/>
							<path class="st2" d="M323.1,506c-0.1,1-0.2,2.1-0.3,3.1c-0.6,6.1-1.2,12.2-1.8,18.2c-3,1.5-6.5,2.7-10.5,3.5
								c-20.9,4.2-41.5-4.3-57-22C293.7,524.8,307.4,520,323.1,506L323.1,506z"/>
							<path class="st2" d="M462.7,401.3c0,0,30.7,14.4,24,176.7c-5.3,59-4.1,56-8.2,53.3s-5.7-6.2-2.2-50.3s3.1-130.7-10.9-168.4
								L462.7,401.3z"/>
							<path class="st3" d="M474.8,615.3c1.9-33,2.6-76.5,0.9-119.6c-0.3-7.1-3.5-58.3-13-94.4"/>
							<path class="st3" d="M344.7,397.8c-7,16.1-14.8,57-14.8,57c-3,18-5.4,36.1-7.2,54.3c-7,70.8-14.6,133.4-8.1,142.1"/>
							<path class="st3" d="M527.3,483c-1.7-9.6-20.2-88.1-48.4-120.7c-35.8-41.3-106.1-35.9-136.6-6.5
								c-26.5,25.5-41.3,82.6-44.6,99.1c-0.8,3.8-2.3,7.4-4.6,10.5c-16.8,21.8-41.6-24.7-41.6-24.7s-2.5-4.9-5.9-10.1l-18,5.4
								c1.1,30.7,11.1,55.9,25.9,72.8c15.5,17.8,36.2,26.3,57,22c4-0.8,7.5-2,10.5-3.5c-6.4,63-12.2,116-6.3,123.9
								c7.2,9.6,140,10.7,158.7-31.5l1,8.9c0,0,32.9,49.2,50.7-10.3C540.3,567.3,530.4,500.9,527.3,483L527.3,483z"/>
						</g>
					</g>
				</g>
			</g>
		</g>
	</g>
</g>
</svg>

<svg width="546" height="546" viewBox="0 0 546 546" fill="none" xmlns="http://www.w3.org/2000/svg">
<g clip-path="url(#clip0_72_2564)">
<mask id="mask0_72_2564" style="mask-type:luminance" maskUnits="userSpaceOnUse" x="0" y="0" width="546" height="546">
<path d="M545.1 0H0V545.1H545.1V0Z" fill="white"/>
</mask>
<g mask="url(#mask0_72_2564)">
<path d="M527.3 483C525.6 473.4 507.1 394.9 478.9 362.3C443.1 321 372.8 326.4 342.3 355.8C315.8 381.3 301 438.4 297.7 454.9C296.9 458.7 295.4 462.3 293.1 465.4C276.3 487.2 251.5 440.7 251.5 440.7C251.5 440.7 249 435.8 245.6 430.6L227.6 436C228.7 466.7 238.7 491.9 253.5 508.8C269 526.6 289.7 535.1 310.5 530.8C314.5 530 318 528.8 321 527.3C314.6 590.3 308.8 643.3 314.7 651.2C321.9 660.8 454.7 661.9 473.4 619.7L474.4 628.6C474.4 628.6 507.3 677.8 525.1 618.3C540.3 567.3 530.4 500.9 527.3 483Z" fill="#FFC68E"/>
<path d="M323.1 506C323 507 322.9 508.1 322.8 509.1C322.2 515.2 321.6 521.3 321 527.3C318 528.8 314.5 530 310.5 530.8C289.6 535 269 526.5 253.5 508.8C293.7 524.8 307.4 520 323.1 506Z" fill="#D18154"/>
<path d="M462.7 401.3C462.7 401.3 493.4 415.7 486.7 578C481.4 637 482.6 634 478.5 631.3C474.4 628.6 472.8 625.1 476.3 581C479.8 536.9 479.4 450.3 465.4 412.6L462.7 401.3Z" fill="#D18154"/>
<path d="M474.8 615.3C476.7 582.3 477.4 538.8 475.7 495.7C475.4 488.6 472.2 437.4 462.7 401.3" stroke="black" stroke-width="5" stroke-linecap="round" stroke-linejoin="round"/>
<path d="M344.7 397.8C337.7 413.9 329.9 454.8 329.9 454.8C326.9 472.8 324.5 490.9 322.7 509.1C315.7 579.9 308.1 642.5 314.6 651.2" stroke="black" stroke-width="5" stroke-linecap="round" stroke-linejoin="round"/>
<path d="M527.3 483C525.6 473.4 507.1 394.9 478.9 362.3C443.1 321 372.8 326.4 342.3 355.8C315.8 381.3 301 438.4 297.7 454.9C296.9 458.7 295.4 462.3 293.1 465.4C276.3 487.2 251.5 440.7 251.5 440.7C251.5 440.7 249 435.8 245.6 430.6L227.6 436C228.7 466.7 238.7 491.9 253.5 508.8C269 526.6 289.7 535.1 310.5 530.8C314.5 530 318 528.8 321 527.3C314.6 590.3 308.8 643.3 314.7 651.2C321.9 660.8 454.7 661.9 473.4 619.7L474.4 628.6C474.4 628.6 507.3 677.8 525.1 618.3C540.3 567.3 530.4 500.9 527.3 483Z" stroke="black" stroke-width="5" stroke-linecap="round" stroke-linejoin="round"/>
</g>
</g>
<defs>
<clipPath id="clip0_72_2564">
<rect width="545.1" height="545.1" fill="white"/>
</clipPath>
</defs>
</svg>
